X:1
T:Zwölf Kinderlieder für Schule und Haus, Heft 2
T:Abendglöcklein
T:Friedrich Silcher
T:Friedrich Güll
T:Abendglöcklein
T:CPDL   —   Creative Commons Attribution Non Commercial 3.0
C:Friedrich Silcher
Z:Friedrich Güll
Z:CPDL   —   Creative Commons Attribution Non Commercial 3.0
%%score ( 1 2 )
L:1/8
Q:1/4=80
M:3/4
K:F
V:1 treble nm="Sopran\nAlt"
V:2 treble 
V:1
"^Gemäßigt" A>B AG AB | (c2 f2 d2) | c2 z2 c>d | c>B B2 B>c | (A2 dc) BA | G4 z2 | A>B AG AB | %7
w: Glöck- lein, A- bend- glöck- lein|läu- * *|te Frie- den,|Freu- * de al- len|Men- * * schen *|zu!|Hel- le lass dein Lied er-|
 (c2 f2 d2) | c2 z2 c>=B | =B2 A2 f>e | e2 d2 cd | (e3 f e)d | c4 c_B | G3 G A>B | (d2 c2) cB | %15
w: schal- * *|len, und bring'|al- len, und bring'|al- len ei- ne|sanf- * * te|Ruh'! Ru- he|dem, der sorgt und|weint, _ Ruh' dem|
 G3 G A>B | (d2 c2) z2 | A>B AG AB | (c2 f2) d2 | c4 z2 | d>c dc BA | (c2 B2) G2 | F4 z2 |] %23
w: Freun- de und dem|Feind! _|Glöck- lein al- len Lie- ben|brin- * ge|du|sanf- te Ru- he, und mir|auch _ da-|zu!|
V:2
 F>G FC FG | (A2 d2 B2) | A2 x2 A>B | A>G G2 G>A | (F2 BA) GF | E4 x2 | F>G FC FG | (A2 d2 B2) | %8
 A2 z2 z2 | z2 z2 A>G | G2 F2 EF | (G3 A G)F | E4 AG | E3 E F>G | (B2 A2) AG | E3 E F>G | %16
 (B2 A2) x2 | F>G FC FG | (A2 d2) B2 | A4 x2 | B>A BA GF | (A2 G2) C2 | A,4 x2 |] %23

